X: 35145
T: Rond De Loudéac
R: barndance
M: 4/4
K: Eminor
EBAB GBAB|G/F/EFG DEED|EBAB GBAB|G/F/EFG E4|
cEAG FEF2|E/F/GAG F4|cEAG FEF2|EGFG E4||

